X:1
T:If Wishes Were Fishes
M:3/4
L:1/8
K:E
G-A| B B4 B| GF E3 C| E E3 E2| ED C3 B,| B,2 E E3| G4 EG| B2 B3 G|\
 F6| E E3 E2| GF E4| E E3 E2| DC C3 C| B, B,3 E2| G G2 GG A| G2 F3 E|\
 E6| z4 z D| c c3 c2| c B3 z A| B2 B2 C2| C6| G B3 B2| c4 AA| A2 G2 F2|\
 F4 z E| c2 c2 d2| c2 c2 BB| e2 e- B2 B| A4 z B,| G B3 B2| B- A3 FF|\
 G F3 E2|C-B, B,4-| B,4||

